X:1
T:Title
%%score { ( 1 3 ) | ( 2 4 ) }
L:1/8
Q:1/4=100
M:4/4
K:F
V:1 treble nm="Grand Piano"
V:3 treble 
V:2 treble 
V:4 treble 
V:1
 c3 =B dcAF | [B,D]2 [B,^CF]2 [A,=CA]4 | c3 =B dcAF | [G,=B,G]2 [F,B,D]2 G4 | c3 =B dcAF | %5
w: J.~Lincoln~Hall * * * * *|||||
 D2 [^CF]2 A4 | AG^FG e2 d2 | [Ec]6 z2 | [EB] [EB]2 [Ec] [Ed]2 [EB]2 | %9
w: ||||
 [FA] [FA]2 [Ac] [Ad]2 [Ac]2 | [EB] [EB]2 [Ec] [Ed]2 [EB]2 | A A2 _A =A4 | %12
w: |||
 [^CEA] [CEA]2 [CEB] [CEA]2 [CE]2 | [FA] [FA]2 [FB] [FA]2 F2 | D D2 E F2 G2 |[M:5/4] [^CA]4 [EB]6 | %16
w: ||||
[M:6/8] A3 _A3 | A6 | c3 =B3 | c6 | d3 .B3 | c3 A3 | D3 .A3 | AGE z B,C | A3 _A3 | A6 | c3 =B3 | %27
w: |||||||||||
 c6 | d3 .e3 | fcA FGA | .c3 .A3 | F6 |] %32
w: |||||
V:2
 C3 =B, DCA,[K:bass]F, | B,,2 B,,2 F,4 | C3 =B, DCA,F, | G,,2 G,,2 [C,E,B,]4 | %4
 C3 =B, DCA,[K:bass]F, | [B,,B,]2 [B,,B,]2 [F,A,C]4 | %6
 [G,CE][K:treble][G,CE][G,CE][G,CE] [G,CG]2 [G,=B,F]2 | [C,C]6 z2 | %8
 [C,C] [C,C]2 [C,C] [C,C]2 [C,C]2 | [F,C] [F,C]2 [F,CF] [F,CF]2 [F,CF]2 | %10
 [C,C] [C,C]2 [C,C] [C,C]2 [C,C]2 | [F,CF] [F,CF]2 [F,=B,F] [F,CF]4 | %12
 [A,,A,] [A,,A,]2 [A,,A,] [A,,A,]2 [A,,A,]2 | [D,A,D] [D,A,D]2 [D,A,D] [D,A,D]2 [D,A,D]2 | %14
 [D,,D,] [D,,D,]2 [E,,E,] [F,,F,]2 [G,,G,]2 |[M:5/4] [A,,A,]4 [C,G,C]6 | %16
[M:6/8] z CC z [=B,D][B,D] | z CC z[K:treble] CC | z FE z DD | z FF z FF | z DD z D[F,DF] | %21
 z CC z CC | G,3 z2 =B, | z [B,C][B,C] z2 B, | z [A,C][A,C] z [B,D][B,D] | z CC z[K:treble] CC | %26
 z FF z DD | z FF[K:bass] z .F2 | z[K:treble] [B,F][B,F] z [B,F][B,FB] | %29
 z[K:treble] [A,FA][A,CF][K:bass] z [A,E][A,_E] | z B,[B,D] z B,[B,E] | z A,A, A,3 |] %32
V:3
 x8 | x8 | x8 | x8 | x8 | x8 | x8 | x8 | x8 | x8 | x8 | x8 | x8 | x8 | x8 |[M:5/4] x10 | %16
[M:6/8] z FF z FF | z FF z FF | z AA z FF | z AA z AA | z FF z Fd | z FF z FF | z =B,B, z B,G | %23
 z3 .D3 | z FF z FF | z FF z FF | z AA z FF | z AA [FA] .A2 | z BB z Bf | x6 | z DB z EG | %31
 z CC C3 |] %32
V:4
 x7[K:bass] x | x8 | x8 | x8 | x7[K:bass] x | x8 | x[K:treble] x7 | x8 | x8 | x8 | x8 | x8 | x8 | %13
 x8 | x8 |[M:5/4] x10 |[M:6/8] F,,3 D,3 | F,3 C,3[K:treble] | A,3 _A,3 | A,3 F,3 | B,,3 .D,3 | %21
 A,3 F,3 | z3 G,,3 | C,3 E,3 | F,3 D,3 | F,3 C,3[K:treble] | A,3 _A,3 | A,3[K:bass] F,3 | %28
 B,,3[K:treble] D,3 | C,3[K:treble][K:bass] F,3 | B,,3 C,3 | F,6 |] %32

